X:22
T:Montrosse March
Z:Jack Campin - http://www.campin.me.uk
S:Blaikie MS (NLS MS.1578) p9, Blaikie #21
M:6/8
L:1/8
V:1 midi program 1 74
V:2 midi program 1 46 bass middle = d transpose -24
Q:3/8=66
N:bar 4 is written as
N:[V:1] |e>de/f/ [d3d2]:|
N:[V:2] |a2A      d2   :|
N:weird harmony in bar 3 is as in the MS
N:initial rest added
K:G
[V:1] z|GGG  AAA|B>AB/c/ d2e/f/|
[V:2] z|g3   d3 |g2e     d2z   |
%
[V:1]  ggg    gff/g/|e>de/f/ d2::g/g/|g>ag Bcd|
[V:2] ^c'c'c' d'2g  |a2A     d2::z   |g2g  GAB|
%
[V:1] e>de ABc|d>ed Bd/B/G|G>AG G2:|
[V:2] c2c  d2d|G2g  Gg   z|gdB  G2:|
W:Transcription (c) Jack Campin 2009, no mirroring or republication without permission

